X: 1
T:Down the Jubilee
M:6/8
C:
S:Chingford MM
N:based on Ashling
A:Chingford
O:English
R:Jig
%P:A.A.(AB)$^7$.A
P:A.A.(AB)7.A
L:1/8
K:G
I:speed 300
P:A
|:\
G2 B AcA|B2 d cec|1 dgf edc|BAG FED:|2 dgf ed^c|d3-d3||\
P:B
e2 c ABA|d2 B GBG|cde EFG|ABG FED|\
W:hold ad nauseum until pint hushed
M:2/4
L:1/8
BA G2|cB A2|dc B2|ef g2-|g4|\
M:6/8
dcB AGF|GAG G3|BAG cBA|dcB efg|dcB AGF|GAG G3||
